svg/set/J22/U.svg

<?xml version="1.0" encoding="utf-8"?>
<!-- Generator: Adobe Illustrator 15.1.0, SVG Export Plug-In . SVG Version: 6.00 Build 0)  -->
<!DOCTYPE svg PUBLIC "-//W3C//DTD SVG 1.1//EN" "http://www.w3.org/Graphics/SVG/1.1/DTD/svg11.dtd">
<svg version="1.1" id="Layer_1" xmlns="http://www.w3.org/2000/svg" xmlns:xlink="http://www.w3.org/1999/xlink" x="0px" y="0px"
	 width="160px" height="112px" viewBox="0 0 160 112" enable-background="new 0 0 160 112" xml:space="preserve">
<g id="Layer_1_1_">
</g>
<g id="Layer_3" display="none">
</g>
<g>
	<path d="M25.573,90.555l1.78-4.565c-0.687-0.247-1.315-0.484-1.878-0.703c-7.001-2.728-13.126-7.554-16.804-13.237
		C4.249,65.215,3.44,57.68,6.332,50.26c6.52-16.729,33.983-34.033,68.657-34.033c1.496,0,3.016,0.031,4.519,0.095l0.624,0.026
		l5.253-13.479l48.305,18.827l-1.779,4.564c0.687,0.248,1.314,0.484,1.878,0.704c7.001,2.729,13.126,7.555,16.804,13.238
		c4.423,6.834,5.231,14.369,2.34,21.788c-6.52,16.729-33.982,34.033-68.654,34.033c-1.497,0-3.018-0.031-4.522-0.095l-0.623-0.026
		l-5.253,13.479L25.573,90.555z M114.237,71.606c11.608-5.282,17.924-12.37,19.4-16.159c1.048-2.688,0.821-5.064-0.694-7.266
		c-1.256-1.82-3.396-3.45-5.727-4.358c-0.622-0.243-1.25-0.476-1.879-0.699L114.237,71.606z M45.026,40.644
		c-11.609,5.282-17.924,12.37-19.4,16.159c-1.048,2.688-0.821,5.064,0.695,7.266c1.255,1.82,3.396,3.45,5.726,4.358
		c0.623,0.243,1.25,0.476,1.88,0.699L45.026,40.644z"/>
	<linearGradient id="SVGID_1_" gradientUnits="userSpaceOnUse" x1="7.9912" y1="56.1255" x2="151.2725" y2="56.1255">
		<stop  offset="0" style="stop-color:#626E77"/>
		<stop  offset="0.0745" style="stop-color:#718089"/>
		<stop  offset="0.2241" style="stop-color:#99ADB9"/>
		<stop  offset="0.25" style="stop-color:#A0B6C2"/>
		<stop  offset="0.3999" style="stop-color:#B0C9D8"/>
		<stop  offset="0.5" style="stop-color:#B7D1E1"/>
		<stop  offset="0.6001" style="stop-color:#B0C9D8"/>
		<stop  offset="0.75" style="stop-color:#A0B6C2"/>
		<stop  offset="0.7759" style="stop-color:#99ADB9"/>
		<stop  offset="0.9255" style="stop-color:#718089"/>
		<stop  offset="1" style="stop-color:#626E77"/>
	</linearGradient>
	<path fill="url(#SVGID_1_)" d="M74.067,72.833c-3.808,9.08-11.701,14.442-17.881,12.035c-6.33-2.469-8.465-12.152-4.771-21.63
		c3.308-8.489,10.171-13.935,16.115-13.205l-6.853,17.58L74.067,72.833z M76.728,73.87C72.41,84.417,65.577,88.632,56.537,90.184
		c-8.09,1.391-17.025-0.768-25.838-3.569l-0.795,2.039l42.075,16.399l11.176-28.678L76.728,73.87z M82.536,38.38
		c4.317-10.547,11.151-14.762,20.19-16.313c8.09-1.391,17.025,0.768,25.838,3.569l0.796-2.039L87.285,7.198L76.109,35.875
		L82.536,38.38z M106.446,82.392l16.923-43.425c1.684,0.503,3.378,1.085,5.063,1.741c5.02,1.956,11.578,7.599,8.321,15.954
		c-2.222,5.699-10.952,14.178-24.835,19.543l-3.851,9.878l-13.991-5.452c-3.112,0.386-6.367,0.603-9.762,0.621l-4.418,11.336
		c36.478,1.536,63.9-16.365,69.92-31.812c5.395-13.84-5.063-25.95-17.242-30.697c-7.502-2.925-17.701-5.475-26.932-4.623
		c6.732,3.854,8.904,14.227,4.863,24.592C106.175,61.16,96.58,67.449,88.664,64.364c-0.241-0.094-0.479-0.195-0.71-0.304
		l6.938-17.804L52.817,29.858L35.894,73.283c-1.683-0.503-3.377-1.085-5.062-1.741c-5.019-1.956-11.579-7.598-8.322-15.954
		c2.222-5.699,10.951-14.178,24.835-19.543l3.851-9.878l13.992,5.453c3.112-0.387,6.368-0.604,9.762-0.622l4.417-11.336
		c-36.477-1.535-63.9,16.364-69.92,31.812C4.053,65.313,14.51,77.425,26.69,82.171c7.502,2.925,17.701,5.475,26.932,4.623
		c-6.733-3.854-8.904-14.227-4.864-24.592c4.332-11.112,13.926-17.401,21.842-14.316c0.242,0.094,0.479,0.195,0.71,0.304
		l-6.938,17.803L106.446,82.392 M98.586,44.637l-6.853,17.58c5.944,0.729,12.808-4.716,16.115-13.205
		c3.694-9.478,1.56-19.161-4.771-21.629c-6.181-2.408-14.074,2.954-17.881,12.034L98.586,44.637z M64.372,65.992"/>
</g>
</svg>

<?xml version="1.0" encoding="UTF-8" standalone="no"?>
<!-- Generator: Adobe Illustrator 15.1.0, SVG Export Plug-In . SVG Version: 6.00 Build 0)  -->

<svg
   version="1.1"
   id="Layer_1"
   x="0px"
   y="0px"
   width="150.00084"
   height="106.512"
   viewBox="0 0 150.00084 106.512"
   enable-background="new 0 0 160 112"
   xml:space="preserve"
   xmlns="http://www.w3.org/2000/svg"
   xmlns:svg="http://www.w3.org/2000/svg"><defs
   id="defs11" />
<g
   id="Layer_1_1_"
   transform="translate(-4.6318354,-2.869)">
</g>
<g
   id="Layer_3"
   display="none"
   transform="translate(-4.6318354,-2.869)">
</g>
<g
   id="g11"
   transform="translate(-4.6318354,-2.869)">
	<path
   d="m 25.573,90.555 1.78,-4.565 C 26.666,85.743 26.038,85.506 25.475,85.287 18.474,82.559 12.349,77.733 8.671,72.05 4.249,65.215 3.44,57.68 6.332,50.26 12.852,33.531 40.315,16.227 74.989,16.227 c 1.496,0 3.016,0.031 4.519,0.095 l 0.624,0.026 5.253,-13.479 48.305,18.827 -1.779,4.564 c 0.687,0.248 1.314,0.484 1.878,0.704 7.001,2.729 13.126,7.555 16.804,13.238 4.423,6.834 5.231,14.369 2.34,21.788 -6.52,16.729 -33.982,34.033 -68.654,34.033 -1.497,0 -3.018,-0.031 -4.522,-0.095 l -0.623,-0.026 -5.253,13.479 z m 88.664,-18.949 c 11.608,-5.282 17.924,-12.37 19.4,-16.159 1.048,-2.688 0.821,-5.064 -0.694,-7.266 -1.256,-1.82 -3.396,-3.45 -5.727,-4.358 -0.622,-0.243 -1.25,-0.476 -1.879,-0.699 z M 45.026,40.644 c -11.609,5.282 -17.924,12.37 -19.4,16.159 -1.048,2.688 -0.821,5.064 0.695,7.266 1.255,1.82 3.396,3.45 5.726,4.358 0.623,0.243 1.25,0.476 1.88,0.699 z"
   id="path1" />
	<linearGradient
   id="SVGID_1_"
   gradientUnits="userSpaceOnUse"
   x1="7.9912"
   y1="56.1255"
   x2="151.27251"
   y2="56.1255">
		<stop
   offset="0"
   style="stop-color:#626E77"
   id="stop1" />
		<stop
   offset="0.0745"
   style="stop-color:#718089"
   id="stop2" />
		<stop
   offset="0.2241"
   style="stop-color:#99ADB9"
   id="stop3" />
		<stop
   offset="0.25"
   style="stop-color:#A0B6C2"
   id="stop4" />
		<stop
   offset="0.3999"
   style="stop-color:#B0C9D8"
   id="stop5" />
		<stop
   offset="0.5"
   style="stop-color:#B7D1E1"
   id="stop6" />
		<stop
   offset="0.6001"
   style="stop-color:#B0C9D8"
   id="stop7" />
		<stop
   offset="0.75"
   style="stop-color:#A0B6C2"
   id="stop8" />
		<stop
   offset="0.7759"
   style="stop-color:#99ADB9"
   id="stop9" />
		<stop
   offset="0.9255"
   style="stop-color:#718089"
   id="stop10" />
		<stop
   offset="1"
   style="stop-color:#626E77"
   id="stop11" />
	</linearGradient>
	<path
   fill="url(#SVGID_1_)"
   d="M 74.067,72.833 C 70.259,81.913 62.366,87.275 56.186,84.868 49.856,82.399 47.721,72.716 51.415,63.238 54.723,54.749 61.586,49.303 67.53,50.033 l -6.853,17.58 z m 2.661,1.037 C 72.41,84.417 65.577,88.632 56.537,90.184 48.447,91.575 39.512,89.416 30.699,86.615 l -0.795,2.039 42.075,16.399 11.176,-28.678 z m 5.808,-35.49 c 4.317,-10.547 11.151,-14.762 20.19,-16.313 8.09,-1.391 17.025,0.768 25.838,3.569 L 129.36,23.597 87.285,7.198 76.109,35.875 Z m 23.91,44.012 16.923,-43.425 c 1.684,0.503 3.378,1.085 5.063,1.741 5.02,1.956 11.578,7.599 8.321,15.954 -2.222,5.699 -10.952,14.178 -24.835,19.543 l -3.851,9.878 -13.991,-5.452 c -3.112,0.386 -6.367,0.603 -9.762,0.621 l -4.418,11.336 c 36.478,1.536 63.9,-16.365 69.92,-31.812 5.395,-13.84 -5.063,-25.95 -17.242,-30.697 -7.502,-2.925 -17.701,-5.475 -26.932,-4.623 6.732,3.854 8.904,14.227 4.863,24.592 C 106.175,61.16 96.58,67.449 88.664,64.364 88.423,64.27 88.185,64.169 87.954,64.06 L 94.892,46.256 52.817,29.858 35.894,73.283 C 34.211,72.78 32.517,72.198 30.832,71.542 25.813,69.586 19.253,63.944 22.51,55.588 24.732,49.889 33.461,41.41 47.345,36.045 l 3.851,-9.878 13.992,5.453 C 68.3,31.233 71.556,31.016 74.95,30.998 L 79.367,19.662 C 42.89,18.127 15.467,36.026 9.447,51.474 4.053,65.313 14.51,77.425 26.69,82.171 34.192,85.096 44.391,87.646 53.622,86.794 46.889,82.94 44.718,72.567 48.758,62.202 53.09,51.09 62.684,44.801 70.6,47.886 c 0.242,0.094 0.479,0.195 0.71,0.304 l -6.938,17.803 42.074,16.399 m -7.86,-37.755 -6.853,17.58 c 5.944,0.729 12.808,-4.716 16.115,-13.205 3.694,-9.478 1.56,-19.161 -4.771,-21.629 -6.181,-2.408 -14.074,2.954 -17.881,12.034 z M 64.372,65.992"
   id="path11"
   style="fill:url(#SVGID_1_)" />
</g>
</svg>
